X: 29223
T: New Found Out, The
R: reel
M: 4/4
K: Dmajor
|:A3B ADFA|dBBA G3B|A~F3 ABdf|edBA BcdB|
(3ABc (3dcB ADFA|dBBA G3B|A~F3 ABdf|1 edBA BcdB:|
[2 eBBA Bcde|:~f3a gfeg|fedc Bcde|fAdf g2fg|
[1afed Bcde|~f3a gfeg|fedc BcdB|BAFE FAdf|edBA Bcde:|
[2 afed Bdfa|b~f3 affe|defd efdB|A~F3 ABdf|edBA BcdB||

